X: 39
T: Summer Dancing
O: German
%R: air, march
B: "The Everyday Song Book", 1927
F: http://www.library.pitt.edu/happybirthday/pdf/The_Everyday_Song_Book.pdf
Z: 2017 John Chambers <jc:trillian.mit.edu>
N: The two verses differ by only 2 words in bar 9.
M: 2/4
L: 1/8
K: Bb
% - - - - - - - - - - - - - - -
F | B2 B c | d2 d d | c B c d | B3 F |
w: 1.~In sum-mer, in sum-mer, We chil-dren laugh and sing; In
w: 2.~In sum-mer, in sum-mer, We chil-dren laugh and sing; In
%
    B2 B c | d2 d d | c B c d | B3 c |
w: sum-mer, in sum-mer, A-danc-ing in a ring. Our
w: sum-mer, in sum-mer, A-danc-ing in a ring. Our
%
    c2 A c | c2 d c | B B G G | F3 F |
w: hands clap the time, And our feet they gai-ly bound, And
w: heads nod  the time, And our feet they gai-ly bound, And
%
    B2 B c | d2 d d | c B c d | B3 z |]
w: then all to-geth-er We turn our part-ners round.
w: then all to-geth-er We turn our part-ners round.
% - - - - - - - - - - - - - - -

%%sep 1 1 500
%%sep 1 1 500

